X:30
T:Khorovod
O:russia
C:USSR
M:4/4
L:1/8
Q:1/4=113
K:Dm
V:1
"F" a2 c'2 "C" b2 "F" a2 |"C" ga b2 "F" a2 "C" g2 |"Dm" d2 f2 "A" e2 "Dm" d2 |"A" ^cd e2 d2 ^c2 |
"A" A2 "G" B2 "F" B2 "E" ^c2 |]"Dm" d2 f2 e2 d2 |"A" ^cd e2 "Dm" d2 A2 |da3 g2 f2 |
"A" ef g2 "Dm" f2 "A" g2 |"F" a2 a2 "C" b2 "F" a2 |"C" ga b2 "F" a2 "C" g2 |"Dm" da3 "A" g2 "Dm" f2 |
"A" ef g2 "Dm" f2 "C" g2 |"F" a2 a2 "C" b2 "F" a2 |"C" ga b2 "F" a2 "C" g2 |"Dm" da3 "A" g2 "Dm" f2 |
"A" ef g2 "Dm" d4 |]
V:2          %Boventerts
K:F
z4 z4 |z4 z4 |z4 z4 |z4 z4 |
z4 z4 |]f2 a2 g2 f2 |ef g2 (f2 f2) |ff3 e2 d2 |
^cd e2 d2 e2 |f2 f2 g2 f2 |ef g2 f2 e2 |ff3 e2 d2 |
^cd e2 d2 e2 |f2 f2 g2 f2 |ef g2 f2 e2 |ff3 e2 d2 |
^cd e2 f4 |]
